icon-svg/arlo-baby.svg

<svg xmlns="http://www.w3.org/2000/svg" viewBox="0 0 24 24"><path fill="#44739e" d="M16.829 11.765H12.92v3.868h-1.589v-3.868H7.133a5.65 5.65 0 0 0-1.637 3.981v1.756h13.008v-1.686a5.72 5.72 0 0 0-1.675-4.051m-11.261 6.45a.07.07 0 0 0-.07.07A3.715 3.715 0 0 0 9.213 22h5.576a3.715 3.715 0 0 0 3.715-3.715.07.07 0 0 0-.069-.07Zm8.27-10.866a1.84 1.84 0 0 1-1.837 1.837 1.84 1.84 0 0 1-1.837-1.837 1.84 1.84 0 0 1 1.837-1.838 1.84 1.84 0 0 1 1.837 1.838m2.116 3.799a5.3 5.3 0 0 0 1.558-3.741 5.512 5.512 0 0 0-11.022 0 5.3 5.3 0 0 0 1.558 3.746Zm-3.953-6.784a2.985 2.985 0 1 1-2.985 2.985 2.985 2.985 0 0 1 2.985-2.985"/></svg>

<svg xmlns="http://www.w3.org/2000/svg" width="24" height="24" viewBox="0 0 24 24">
  <path id="Colore_riempimento_1" fill="#44739e" data-name="Colore riempimento 1" class="cls-1" d="m 16.83,11.76 h -3.911 v 3.87 H 11.33 V 11.76 H 7.13 A 5.653,5.653 0 0 0 5.492,15.743 V 17.5 H 18.506 V 15.813 A 5.719,5.719 0 0 0 16.83,11.76 Z M 5.564,18.213 A 0.07,0.07 0 0 0 5.494,18.283 3.717,3.717 0 0 0 9.211,22 h 5.578 a 3.717,3.717 0 0 0 3.717,-3.717 0.069,0.069 0 0 0 -0.069,-0.07 z M 13.838,7.342 A 1.8380001,1.8380001 0 0 1 12,9.1800001 1.8380001,1.8380001 0 0 1 10.162,7.342 1.8380001,1.8380001 0 0 1 12,5.5039999 1.8380001,1.8380001 0 0 1 13.838,7.342 Z m 2.117,3.801 A 5.312,5.312 0 0 0 17.513,7.4 5.514,5.514 0 0 0 6.487,7.4 5.312,5.312 0 0 0 8.045,11.148 Z M 12,4.356 A 2.986,2.986 0 1 1 9.014,7.342 2.986,2.986 0 0 1 12,4.356 Z"/>
</svg>
